img/NAMANGANLIKLAR24.svg

<svg width="302" height="21" viewBox="0 0 302 21" fill="none" xmlns="http://www.w3.org/2000/svg">
<path d="M13.7 20C13.42 20 13.1773 19.9347 12.972 19.804C12.7667 19.6547 12.6267 19.5053 12.552 19.356L6.14 9.78V19.244C6.14 19.4493 6.06533 19.6267 5.916 19.776C5.76667 19.9253 5.58933 20 5.384 20H1.716C1.51067 20 1.33333 19.9253 1.184 19.776C1.03467 19.6267 0.96 19.4493 0.96 19.244V1.156C0.96 0.950666 1.03467 0.773333 1.184 0.623999C1.33333 0.474665 1.51067 0.399999 1.716 0.399999H4.628C4.908 0.399999 5.15067 0.474665 5.356 0.623999C5.56133 0.754665 5.70133 0.894665 5.776 1.044L12.188 10.62V1.156C12.188 0.950666 12.2627 0.773333 12.412 0.623999C12.5613 0.474665 12.7387 0.399999 12.944 0.399999H16.612C16.8173 0.399999 16.9947 0.474665 17.144 0.623999C17.2933 0.773333 17.368 0.950666 17.368 1.156V19.244C17.368 19.4493 17.2933 19.6267 17.144 19.776C16.9947 19.9253 16.8173 20 16.612 20H13.7ZM39.0004 18.964C39.0751 19.1507 39.1124 19.2907 39.1124 19.384C39.1124 19.552 39.0471 19.7013 38.9164 19.832C38.8044 19.944 38.6644 20 38.4964 20H34.9684C34.6511 20 34.3991 19.9347 34.2124 19.804C34.0444 19.6547 33.9324 19.4867 33.8764 19.3L33.0924 16.976H25.6444L24.8604 19.3C24.8044 19.4867 24.6831 19.6547 24.4964 19.804C24.3284 19.9347 24.0857 20 23.7684 20H20.2404C20.0724 20 19.9231 19.944 19.7924 19.832C19.6804 19.7013 19.6244 19.552 19.6244 19.384C19.6244 19.2907 19.6617 19.1507 19.7364 18.964L25.8404 1.324C25.9337 1.06267 26.0831 0.847998 26.2884 0.679998C26.4937 0.493332 26.7644 0.399999 27.1004 0.399999H31.6364C31.9724 0.399999 32.2431 0.493332 32.4484 0.679998C32.6537 0.847998 32.8031 1.06267 32.8964 1.324L39.0004 18.964ZM31.6364 12.636L29.3684 5.916L27.1004 12.636H31.6364ZM46.5541 9.976V19.244C46.5541 19.4493 46.4794 19.6267 46.3301 19.776C46.1807 19.9253 46.0034 20 45.7981 20H42.1301C41.9247 20 41.7474 19.9253 41.5981 19.776C41.4487 19.6267 41.3741 19.4493 41.3741 19.244V1.156C41.3741 0.950666 41.4487 0.773333 41.5981 0.623999C41.7474 0.474665 41.9247 0.399999 42.1301 0.399999H45.3781C45.9007 0.399999 46.3021 0.651999 46.5821 1.156L51.1181 8.912L55.6541 1.156C55.9341 0.651999 56.3354 0.399999 56.8581 0.399999H60.1061C60.3114 0.399999 60.4887 0.474665 60.6381 0.623999C60.7874 0.773333 60.8621 0.950666 60.8621 1.156V19.244C60.8621 19.4493 60.7874 19.6267 60.6381 19.776C60.4887 19.9253 60.3114 20 60.1061 20H56.4381C56.2327 20 56.0554 19.9253 55.9061 19.776C55.7567 19.6267 55.6821 19.4493 55.6821 19.244V9.976L53.0501 14.596C52.9194 14.8013 52.7701 14.9693 52.6021 15.1C52.4527 15.2307 52.2567 15.296 52.0141 15.296H50.2221C49.9794 15.296 49.7741 15.2307 49.6061 15.1C49.4567 14.9693 49.3167 14.8013 49.1861 14.596L46.5541 9.976ZM82.5043 18.964C82.579 19.1507 82.6163 19.2907 82.6163 19.384C82.6163 19.552 82.551 19.7013 82.4203 19.832C82.3083 19.944 82.1683 20 82.0003 20H78.4723C78.155 20 77.903 19.9347 77.7163 19.804C77.5483 19.6547 77.4363 19.4867 77.3803 19.3L76.5963 16.976H69.1483L68.3643 19.3C68.3083 19.4867 68.187 19.6547 68.0003 19.804C67.8323 19.9347 67.5896 20 67.2723 20H63.7443C63.5763 20 63.427 19.944 63.2963 19.832C63.1843 19.7013 63.1283 19.552 63.1283 19.384C63.1283 19.2907 63.1656 19.1507 63.2403 18.964L69.3443 1.324C69.4376 1.06267 69.587 0.847998 69.7923 0.679998C69.9976 0.493332 70.2683 0.399999 70.6043 0.399999H75.1403C75.4763 0.399999 75.747 0.493332 75.9523 0.679998C76.1576 0.847998 76.307 1.06267 76.4003 1.324L82.5043 18.964ZM75.1403 12.636L72.8723 5.916L70.6043 12.636H75.1403ZM97.618 20C97.338 20 97.0953 19.9347 96.89 19.804C96.6846 19.6547 96.5446 19.5053 96.47 19.356L90.058 9.78V19.244C90.058 19.4493 89.9833 19.6267 89.834 19.776C89.6846 19.9253 89.5073 20 89.302 20H85.634C85.4286 20 85.2513 19.9253 85.102 19.776C84.9526 19.6267 84.878 19.4493 84.878 19.244V1.156C84.878 0.950666 84.9526 0.773333 85.102 0.623999C85.2513 0.474665 85.4286 0.399999 85.634 0.399999H88.546C88.826 0.399999 89.0686 0.474665 89.274 0.623999C89.4793 0.754665 89.6193 0.894665 89.694 1.044L96.106 10.62V1.156C96.106 0.950666 96.1806 0.773333 96.33 0.623999C96.4793 0.474665 96.6566 0.399999 96.862 0.399999H100.53C100.735 0.399999 100.913 0.474665 101.062 0.623999C101.211 0.773333 101.286 0.950666 101.286 1.156V19.244C101.286 19.4493 101.211 19.6267 101.062 19.776C100.913 19.9253 100.735 20 100.53 20H97.618ZM109.238 7.848C109.182 8.296 109.154 9.01467 109.154 10.004C109.154 11.1613 109.182 12.0107 109.238 12.552C109.312 13.504 109.63 14.288 110.19 14.904C110.75 15.5013 111.608 15.8 112.766 15.8C113.83 15.8 114.679 15.5573 115.314 15.072C115.967 14.568 116.294 13.784 116.294 12.72H113.942C113.736 12.72 113.559 12.6453 113.41 12.496C113.26 12.3467 113.186 12.1693 113.186 11.964V8.996C113.186 8.79067 113.26 8.61333 113.41 8.464C113.559 8.31467 113.736 8.24 113.942 8.24H120.718C120.923 8.24 121.1 8.31467 121.25 8.464C121.399 8.61333 121.474 8.79067 121.474 8.996V12.58C121.474 14.1293 121.091 15.492 120.326 16.668C119.56 17.8253 118.515 18.7213 117.19 19.356C115.883 19.972 114.408 20.28 112.766 20.28C111.03 20.28 109.518 19.944 108.23 19.272C106.942 18.5813 105.943 17.6667 105.234 16.528C104.524 15.3707 104.132 14.092 104.058 12.692C104.02 11.796 104.002 11.0587 104.002 10.48C104.002 9.78933 104.02 8.86533 104.058 7.708C104.114 6.308 104.496 5.03867 105.206 3.9C105.915 2.74267 106.914 1.828 108.202 1.156C109.508 0.465332 111.03 0.119999 112.766 0.119999C114.427 0.119999 115.892 0.427999 117.162 1.044C118.45 1.66 119.448 2.43467 120.158 3.368C120.886 4.30133 121.278 5.20667 121.334 6.084C121.352 6.252 121.296 6.40133 121.166 6.532C121.035 6.644 120.886 6.7 120.718 6.7H116.994C116.751 6.7 116.555 6.644 116.406 6.532C116.275 6.40133 116.098 6.20533 115.874 5.944C115.538 5.53333 115.136 5.20667 114.67 4.964C114.222 4.72133 113.587 4.6 112.766 4.6C110.656 4.6 109.48 5.68267 109.238 7.848ZM142.36 18.964C142.434 19.1507 142.472 19.2907 142.472 19.384C142.472 19.552 142.406 19.7013 142.276 19.832C142.164 19.944 142.024 20 141.856 20H138.328C138.01 20 137.758 19.9347 137.572 19.804C137.404 19.6547 137.292 19.4867 137.236 19.3L136.452 16.976H129.004L128.22 19.3C128.164 19.4867 128.042 19.6547 127.856 19.804C127.688 19.9347 127.445 20 127.128 20H123.6C123.432 20 123.282 19.944 123.152 19.832C123.04 19.7013 122.984 19.552 122.984 19.384C122.984 19.2907 123.021 19.1507 123.096 18.964L129.2 1.324C129.293 1.06267 129.442 0.847998 129.648 0.679998C129.853 0.493332 130.124 0.399999 130.46 0.399999H134.996C135.332 0.399999 135.602 0.493332 135.808 0.679998C136.013 0.847998 136.162 1.06267 136.256 1.324L142.36 18.964ZM134.996 12.636L132.728 5.916L130.46 12.636H134.996ZM157.473 20C157.193 20 156.951 19.9347 156.745 19.804C156.54 19.6547 156.4 19.5053 156.325 19.356L149.913 9.78V19.244C149.913 19.4493 149.839 19.6267 149.689 19.776C149.54 19.9253 149.363 20 149.157 20H145.489C145.284 20 145.107 19.9253 144.957 19.776C144.808 19.6267 144.733 19.4493 144.733 19.244V1.156C144.733 0.950666 144.808 0.773333 144.957 0.623999C145.107 0.474665 145.284 0.399999 145.489 0.399999H148.401C148.681 0.399999 148.924 0.474665 149.129 0.623999C149.335 0.754665 149.475 0.894665 149.549 1.044L155.961 10.62V1.156C155.961 0.950666 156.036 0.773333 156.185 0.623999C156.335 0.474665 156.512 0.399999 156.717 0.399999H160.385C160.591 0.399999 160.768 0.474665 160.917 0.623999C161.067 0.773333 161.141 0.950666 161.141 1.156V19.244C161.141 19.4493 161.067 19.6267 160.917 19.776C160.768 19.9253 160.591 20 160.385 20H157.473ZM178.77 15.52C178.975 15.52 179.153 15.5947 179.302 15.744C179.451 15.8933 179.526 16.0707 179.526 16.276V19.244C179.526 19.4493 179.451 19.6267 179.302 19.776C179.153 19.9253 178.975 20 178.77 20H165.806C165.601 20 165.423 19.9253 165.274 19.776C165.125 19.6267 165.05 19.4493 165.05 19.244V1.156C165.05 0.950666 165.125 0.773333 165.274 0.623999C165.423 0.474665 165.601 0.399999 165.806 0.399999H169.474C169.679 0.399999 169.857 0.474665 170.006 0.623999C170.155 0.773333 170.23 0.950666 170.23 1.156V15.52H178.77ZM182.677 20C182.472 20 182.294 19.9253 182.145 19.776C181.996 19.6267 181.921 19.4493 181.921 19.244V1.156C181.921 0.950666 181.996 0.773333 182.145 0.623999C182.294 0.474665 182.472 0.399999 182.677 0.399999H186.345C186.55 0.399999 186.728 0.474665 186.877 0.623999C187.026 0.773333 187.101 0.950666 187.101 1.156V19.244C187.101 19.4493 187.026 19.6267 186.877 19.776C186.728 19.9253 186.55 20 186.345 20H182.677ZM207.63 19.076C207.686 19.1507 207.714 19.2533 207.714 19.384C207.714 19.552 207.649 19.7013 207.518 19.832C207.406 19.944 207.266 20 207.098 20H202.646C202.404 20 202.198 19.9533 202.03 19.86C201.862 19.748 201.685 19.58 201.498 19.356L196.206 12.692V19.244C196.206 19.4493 196.132 19.6267 195.982 19.776C195.833 19.9253 195.656 20 195.45 20H191.782C191.577 20 191.4 19.9253 191.25 19.776C191.101 19.6267 191.026 19.4493 191.026 19.244V1.156C191.026 0.950666 191.101 0.773333 191.25 0.623999C191.4 0.474665 191.577 0.399999 191.782 0.399999H195.45C195.656 0.399999 195.833 0.474665 195.982 0.623999C196.132 0.773333 196.206 0.950666 196.206 1.156V7.064L201.134 1.016C201.284 0.829333 201.433 0.68 201.582 0.568C201.732 0.455999 201.956 0.399999 202.254 0.399999H206.622C206.79 0.399999 206.93 0.465332 207.042 0.595999C207.173 0.707999 207.238 0.847999 207.238 1.016C207.238 1.128 207.21 1.23067 207.154 1.324L200.238 9.78L207.63 19.076ZM223.586 15.52C223.792 15.52 223.969 15.5947 224.118 15.744C224.268 15.8933 224.342 16.0707 224.342 16.276V19.244C224.342 19.4493 224.268 19.6267 224.118 19.776C223.969 19.9253 223.792 20 223.586 20H210.622C210.417 20 210.24 19.9253 210.09 19.776C209.941 19.6267 209.866 19.4493 209.866 19.244V1.156C209.866 0.950666 209.941 0.773333 210.09 0.623999C210.24 0.474665 210.417 0.399999 210.622 0.399999H214.29C214.496 0.399999 214.673 0.474665 214.822 0.623999C214.972 0.773333 215.046 0.950666 215.046 1.156V15.52H223.586ZM244.461 18.964C244.536 19.1507 244.573 19.2907 244.573 19.384C244.573 19.552 244.508 19.7013 244.377 19.832C244.265 19.944 244.125 20 243.957 20H240.429C240.112 20 239.86 19.9347 239.673 19.804C239.505 19.6547 239.393 19.4867 239.337 19.3L238.553 16.976H231.105L230.321 19.3C230.265 19.4867 230.144 19.6547 229.957 19.804C229.789 19.9347 229.547 20 229.229 20H225.701C225.533 20 225.384 19.944 225.253 19.832C225.141 19.7013 225.085 19.552 225.085 19.384C225.085 19.2907 225.123 19.1507 225.197 18.964L231.301 1.324C231.395 1.06267 231.544 0.847998 231.749 0.679998C231.955 0.493332 232.225 0.399999 232.561 0.399999H237.097C237.433 0.399999 237.704 0.493332 237.909 0.679998C238.115 0.847998 238.264 1.06267 238.357 1.324L244.461 18.964ZM237.097 12.636L234.829 5.916L232.561 12.636H237.097ZM255.179 0.399999C257.68 0.399999 259.622 0.941332 261.003 2.024C262.384 3.088 263.075 4.684 263.075 6.812C263.075 9.51867 261.964 11.3853 259.743 12.412L263.215 19.076C263.271 19.188 263.299 19.2907 263.299 19.384C263.299 19.552 263.234 19.7013 263.103 19.832C262.991 19.944 262.851 20 262.683 20H258.875C258.539 20 258.287 19.9347 258.119 19.804C257.951 19.6547 257.811 19.468 257.699 19.244L254.591 13.252H252.015V19.244C252.015 19.4493 251.94 19.6267 251.791 19.776C251.642 19.9253 251.464 20 251.259 20H247.591C247.386 20 247.208 19.9253 247.059 19.776C246.91 19.6267 246.835 19.4493 246.835 19.244V1.156C246.835 0.950666 246.91 0.773333 247.059 0.623999C247.208 0.474665 247.386 0.399999 247.591 0.399999H255.179ZM255.179 8.884C256.99 8.884 257.895 8.19333 257.895 6.812C257.895 5.43067 256.99 4.74 255.179 4.74H252.015V8.884H255.179ZM273.976 15.52H281.004C281.209 15.52 281.386 15.5947 281.536 15.744C281.685 15.8933 281.76 16.0707 281.76 16.276V19.244C281.76 19.4493 281.685 19.6267 281.536 19.776C281.386 19.9253 281.209 20 281.004 20H266.22C266.014 20 265.837 19.9253 265.688 19.776C265.538 19.6267 265.464 19.4493 265.464 19.244V16.836C265.464 16.1267 265.734 15.576 266.276 15.184L274.648 9.192C275.245 8.744 275.637 8.33333 275.824 7.96C276.029 7.568 276.132 7.148 276.132 6.7C276.132 6.23333 275.964 5.76667 275.628 5.3C275.31 4.83333 274.694 4.6 273.78 4.6C273.145 4.6 272.641 4.73067 272.268 4.992C271.913 5.23467 271.68 5.468 271.568 5.692C271.474 5.89733 271.344 6.224 271.176 6.672C271.082 6.91467 270.942 7.08267 270.756 7.176C270.569 7.26933 270.336 7.316 270.056 7.316H266.612C266.444 7.316 266.294 7.26 266.164 7.148C266.052 7.01733 265.996 6.868 265.996 6.7C266.033 5.59867 266.341 4.55333 266.92 3.564C267.498 2.556 268.366 1.73467 269.524 1.1C270.681 0.446666 272.09 0.119999 273.752 0.119999C275.338 0.119999 276.701 0.427999 277.84 1.044C278.978 1.64133 279.837 2.444 280.416 3.452C281.013 4.44133 281.312 5.524 281.312 6.7C281.312 7.83867 281.05 8.87467 280.528 9.808C280.024 10.7227 279.146 11.6373 277.896 12.552L273.976 15.52ZM294.192 20C293.987 20 293.81 19.9253 293.66 19.776C293.511 19.6267 293.436 19.4493 293.436 19.244V16.388H284.616C284.411 16.388 284.234 16.3133 284.084 16.164C283.935 16.0147 283.86 15.8373 283.86 15.632V12.664C283.86 12.1787 283.982 11.7773 284.224 11.46L292.596 0.903999C292.764 0.698666 292.914 0.567999 293.044 0.511999C293.194 0.437332 293.39 0.399999 293.632 0.399999H297.86C298.066 0.399999 298.243 0.474665 298.392 0.623999C298.542 0.773333 298.616 0.950666 298.616 1.156V11.908H301.024C301.23 11.908 301.407 11.9827 301.556 12.132C301.706 12.2813 301.78 12.4587 301.78 12.664V15.632C301.78 15.8373 301.706 16.0147 301.556 16.164C301.407 16.3133 301.23 16.388 301.024 16.388H298.616V19.244C298.616 19.4493 298.542 19.6267 298.392 19.776C298.243 19.9253 298.066 20 297.86 20H294.192ZM293.576 6.756L289.488 11.908H293.576V6.756Z" fill="#295091"/>
</svg>

<svg width="302" height="21" fill="none" xmlns="http://www.w3.org/2000/svg"><path d="M13.7 20c-.28 0-.523-.065-.728-.196-.205-.15-.345-.299-.42-.448L6.14 9.78v9.464a.727.727 0 01-.224.532.727.727 0 01-.532.224H1.716a.727.727 0 01-.532-.224.727.727 0 01-.224-.532V1.156c0-.205.075-.383.224-.532A.727.727 0 011.716.4h2.912c.28 0 .523.075.728.224.205.13.345.27.42.42l6.412 9.576V1.156c0-.205.075-.383.224-.532A.727.727 0 0112.944.4h3.668c.205 0 .383.075.532.224.15.15.224.327.224.532v18.088a.727.727 0 01-.224.532.727.727 0 01-.532.224H13.7zM39 18.964c.075.187.112.327.112.42a.617.617 0 01-.196.448.57.57 0 01-.42.168h-3.528c-.317 0-.569-.065-.756-.196a1.093 1.093 0 01-.336-.504l-.784-2.324h-7.448L24.86 19.3a1.029 1.029 0 01-.364.504c-.168.13-.41.196-.728.196H20.24a.669.669 0 01-.448-.168.669.669 0 01-.168-.448c0-.093.038-.233.112-.42l6.104-17.64a1.44 1.44 0 01.448-.644c.206-.187.476-.28.812-.28h4.536c.336 0 .607.093.812.28.206.168.355.383.448.644L39 18.964zm-7.364-6.328l-2.268-6.72-2.268 6.72h4.536zm14.918-2.66v9.268a.727.727 0 01-.224.532.727.727 0 01-.532.224H42.13a.727.727 0 01-.532-.224.727.727 0 01-.224-.532V1.156c0-.205.075-.383.224-.532A.727.727 0 0142.13.4h3.248c.523 0 .924.252 1.204.756l4.536 7.756 4.536-7.756c.28-.504.681-.756 1.204-.756h3.248c.205 0 .383.075.532.224.15.15.224.327.224.532v18.088a.727.727 0 01-.224.532.727.727 0 01-.532.224h-3.668a.727.727 0 01-.532-.224.727.727 0 01-.224-.532V9.976l-2.632 4.62a1.97 1.97 0 01-.448.504c-.15.13-.345.196-.588.196h-1.792a.973.973 0 01-.616-.196c-.15-.13-.29-.299-.42-.504l-2.632-4.62zm35.95 8.988c.075.187.112.327.112.42a.617.617 0 01-.196.448A.57.57 0 0182 20h-3.528c-.317 0-.569-.065-.756-.196a1.093 1.093 0 01-.336-.504l-.784-2.324h-7.448l-.784 2.324a1.029 1.029 0 01-.364.504c-.168.13-.41.196-.728.196h-3.528a.669.669 0 01-.448-.168.669.669 0 01-.168-.448c0-.093.038-.233.112-.42l6.104-17.64a1.44 1.44 0 01.448-.644c.206-.187.476-.28.812-.28h4.536c.336 0 .607.093.812.28.206.168.355.383.448.644l6.104 17.64zm-7.364-6.328l-2.268-6.72-2.268 6.72h4.536zM97.618 20c-.28 0-.523-.065-.728-.196-.205-.15-.345-.299-.42-.448L90.058 9.78v9.464a.727.727 0 01-.224.532.727.727 0 01-.532.224h-3.668a.727.727 0 01-.532-.224.727.727 0 01-.224-.532V1.156c0-.205.075-.383.224-.532A.727.727 0 0185.634.4h2.912c.28 0 .523.075.728.224.205.13.345.27.42.42l6.412 9.576V1.156c0-.205.075-.383.224-.532A.727.727 0 0196.862.4h3.668c.205 0 .383.075.532.224.149.15.224.327.224.532v18.088a.728.728 0 01-.224.532.727.727 0 01-.532.224h-2.912zm11.62-12.152c-.056.448-.084 1.167-.084 2.156 0 1.157.028 2.007.084 2.548.074.952.392 1.736.952 2.352.56.597 1.418.896 2.576.896 1.064 0 1.913-.243 2.548-.728.653-.504.98-1.288.98-2.352h-2.352a.725.725 0 01-.532-.224.724.724 0 01-.224-.532V8.996c0-.205.074-.383.224-.532a.725.725 0 01.532-.224h6.776c.205 0 .382.075.532.224.149.15.224.327.224.532v3.584c0 1.55-.383 2.912-1.148 4.088-.766 1.157-1.811 2.053-3.136 2.688-1.307.616-2.782.924-4.424.924-1.736 0-3.248-.336-4.536-1.008-1.288-.69-2.287-1.605-2.996-2.744a8.027 8.027 0 01-1.176-3.836 53.85 53.85 0 01-.056-2.212c0-.69.018-1.615.056-2.772.056-1.4.438-2.67 1.148-3.808.709-1.157 1.708-2.072 2.996-2.744C109.508.466 111.03.12 112.766.12c1.661 0 3.126.308 4.396.924 1.288.616 2.286 1.39 2.996 2.324.728.933 1.12 1.839 1.176 2.716a.531.531 0 01-.168.448.67.67 0 01-.448.168h-3.724c-.243 0-.439-.056-.588-.168-.131-.13-.308-.327-.532-.588a3.823 3.823 0 00-1.204-.98c-.448-.243-1.083-.364-1.904-.364-2.11 0-3.286 1.083-3.528 3.248zm33.122 11.116c.074.187.112.327.112.42a.62.62 0 01-.196.448.57.57 0 01-.42.168h-3.528c-.318 0-.57-.065-.756-.196a1.093 1.093 0 01-.336-.504l-.784-2.324h-7.448l-.784 2.324a1.033 1.033 0 01-.364.504c-.168.13-.411.196-.728.196H123.6a.668.668 0 01-.448-.168.669.669 0 01-.168-.448c0-.093.037-.233.112-.42l6.104-17.64c.093-.261.242-.476.448-.644.205-.187.476-.28.812-.28h4.536c.336 0 .606.093.812.28.205.168.354.383.448.644l6.104 17.64zm-7.364-6.328l-2.268-6.72-2.268 6.72h4.536zM157.473 20c-.28 0-.522-.065-.728-.196-.205-.15-.345-.299-.42-.448l-6.412-9.576v9.464a.724.724 0 01-.224.532.725.725 0 01-.532.224h-3.668a.729.729 0 01-.532-.224.728.728 0 01-.224-.532V1.156c0-.205.075-.383.224-.532a.728.728 0 01.532-.224h2.912c.28 0 .523.075.728.224.206.13.346.27.42.42l6.412 9.576V1.156c0-.205.075-.383.224-.532a.728.728 0 01.532-.224h3.668c.206 0 .383.075.532.224.15.15.224.327.224.532v18.088a.724.724 0 01-.224.532.725.725 0 01-.532.224h-2.912zm21.297-4.48c.205 0 .383.075.532.224.149.15.224.327.224.532v2.968a.728.728 0 01-.224.532.727.727 0 01-.532.224h-12.964a.727.727 0 01-.532-.224.728.728 0 01-.224-.532V1.156c0-.205.075-.383.224-.532a.727.727 0 01.532-.224h3.668c.205 0 .383.075.532.224.149.15.224.327.224.532V15.52h8.54zm3.907 4.48a.727.727 0 01-.532-.224.728.728 0 01-.224-.532V1.156c0-.205.075-.383.224-.532a.727.727 0 01.532-.224h3.668c.205 0 .383.075.532.224.149.15.224.327.224.532v18.088a.728.728 0 01-.224.532.727.727 0 01-.532.224h-3.668zm24.953-.924a.503.503 0 01.084.308.615.615 0 01-.196.448.57.57 0 01-.42.168h-4.452c-.242 0-.448-.047-.616-.14a2.614 2.614 0 01-.532-.504l-5.292-6.664v6.552a.724.724 0 01-.224.532.725.725 0 01-.532.224h-3.668a.729.729 0 01-.532-.224.728.728 0 01-.224-.532V1.156c0-.205.075-.383.224-.532a.728.728 0 01.532-.224h3.668c.206 0 .383.075.532.224.15.15.224.327.224.532v5.908l4.928-6.048c.15-.187.299-.336.448-.448.15-.112.374-.168.672-.168h4.368a.53.53 0 01.42.196.53.53 0 01.196.42.587.587 0 01-.084.308l-6.916 8.456 7.392 9.296zm15.956-3.556c.206 0 .383.075.532.224.15.15.224.327.224.532v2.968a.724.724 0 01-.224.532.725.725 0 01-.532.224h-12.964a.729.729 0 01-.532-.224.728.728 0 01-.224-.532V1.156c0-.205.075-.383.224-.532a.728.728 0 01.532-.224h3.668c.206 0 .383.075.532.224.15.15.224.327.224.532V15.52h8.54zm20.875 3.444c.075.187.112.327.112.42a.615.615 0 01-.196.448.57.57 0 01-.42.168h-3.528c-.317 0-.569-.065-.756-.196a1.093 1.093 0 01-.336-.504l-.784-2.324h-7.448l-.784 2.324a1.027 1.027 0 01-.364.504c-.168.13-.41.196-.728.196h-3.528a.67.67 0 01-.448-.168.669.669 0 01-.168-.448c0-.093.038-.233.112-.42l6.104-17.64c.094-.261.243-.476.448-.644.206-.187.476-.28.812-.28h4.536c.336 0 .607.093.812.28.206.168.355.383.448.644l6.104 17.64zm-7.364-6.328l-2.268-6.72-2.268 6.72h4.536zM255.179.4c2.501 0 4.443.541 5.824 1.624 1.381 1.064 2.072 2.66 2.072 4.788 0 2.707-1.111 4.573-3.332 5.6l3.472 6.664a.697.697 0 01.084.308.615.615 0 01-.196.448.57.57 0 01-.42.168h-3.808c-.336 0-.588-.065-.756-.196a1.838 1.838 0 01-.42-.56l-3.108-5.992h-2.576v5.992a.728.728 0 01-.224.532.727.727 0 01-.532.224h-3.668a.727.727 0 01-.532-.224.728.728 0 01-.224-.532V1.156c0-.205.075-.383.224-.532a.727.727 0 01.532-.224h7.588zm0 8.484c1.811 0 2.716-.69 2.716-2.072 0-1.381-.905-2.072-2.716-2.072h-3.164v4.144h3.164zm18.797 6.636h7.028c.205 0 .382.075.532.224.149.15.224.327.224.532v2.968a.728.728 0 01-.224.532.729.729 0 01-.532.224H266.22a.725.725 0 01-.532-.224.724.724 0 01-.224-.532v-2.408c0-.71.27-1.26.812-1.652l8.372-5.992c.597-.448.989-.859 1.176-1.232a2.68 2.68 0 00.308-1.26c0-.467-.168-.933-.504-1.4-.318-.467-.934-.7-1.848-.7-.635 0-1.139.13-1.512.392-.355.243-.588.476-.7.7-.094.205-.224.532-.392.98-.094.243-.234.41-.42.504a1.56 1.56 0 01-.7.14h-3.444a.668.668 0 01-.448-.168.669.669 0 01-.168-.448 6.562 6.562 0 01.924-3.136c.578-1.008 1.446-1.83 2.604-2.464 1.157-.653 2.566-.98 4.228-.98 1.586 0 2.949.308 4.088.924 1.138.597 1.997 1.4 2.576 2.408a6.17 6.17 0 01.896 3.248c0 1.139-.262 2.175-.784 3.108-.504.915-1.382 1.83-2.632 2.744l-3.92 2.968zM294.192 20a.729.729 0 01-.532-.224.728.728 0 01-.224-.532v-2.856h-8.82a.729.729 0 01-.532-.224.728.728 0 01-.224-.532v-2.968c0-.485.122-.887.364-1.204L292.596.904c.168-.205.318-.336.448-.392.15-.075.346-.112.588-.112h4.228c.206 0 .383.075.532.224.15.15.224.327.224.532v10.752h2.408c.206 0 .383.075.532.224.15.15.224.327.224.532v2.968a.724.724 0 01-.224.532.725.725 0 01-.532.224h-2.408v2.856a.724.724 0 01-.224.532.725.725 0 01-.532.224h-3.668zm-.616-13.244l-4.088 5.152h4.088V6.756z" fill="#295091"/></svg>
